X:1
T:Sari Marais
M:4/4
L:1/8
K:D
 A,2| D2 DE F2 A,A,| B,B, B,B, E3 D/2D/2| C2 CB, A,2 GG| F6| A,2| D2 DE FA FD|\
 B,2 B,2 E3 D| CC CB, A,2 E2| D6| F2| G2 G2 G2 GG| F2 F2 F4| D2 DE FE FA|\
 E6| A,2| DC DE FE DC| B,2 B,2 E4| C2 CB, A,2 G2| F6| A,2| DC DE FE DC|\
 B,B, B,B, E3 D| CC CB, A,2 E2| D6||
